layouts/icon-pack/drink_jug.svg

<?xml version="1.0" encoding="UTF-8"?>
<svg width="1200pt" height="1200pt" version="1.1" viewBox="0 0 1200 1200" xmlns="http://www.w3.org/2000/svg">
 <path d="m768.28 174.78c-25.246 0-45.742 20.484-45.742 45.742 0 25.262 20.484 45.742 45.742 45.742 25.262 0 45.742-20.473 45.742-45.742 0-25.258-20.473-45.742-45.742-45.742zm-161.69 991.82c-72.539 0.625-120.54-1.1875-161.61-4.7891-163.16-14.398-157.3-169.8-157.3-169.8s-0.42188-439.93-0.28906-447.89c1.0664-65.172 13.656-131.57 107.07-198.17 95.867-68.328 107.62-136.46 108.57-160.16l0.003906-126.18c0.38281-20.484 17.566-36.973 38.641-36.973h129.54c21.457 0 38.652 16.5 39.012 36.973v33.238c3.707 19.992 21.168 33.301 36.91 33.301 0 0 17.941-0.61328 21.145-0.61328 52.465 0 94.992 42.527 94.992 94.992 0 3-0.17969 5.9648-0.43359 8.8789 0 14.52-1.2734 25.523 8.7734 35.016 4.5469 3.9961 7.4414 9.8398 7.4414 16.379 0 12.059-9.7812 21.828-21.84 21.828-3.6836 0-7.1289-0.92578-10.176-2.5312 0 0-7.1172-2.9531-11.137-3.2539-7.1406-0.52734-13.859 1.7656-19.117 6-6.0352 4.8477-10.008 12.266-10.105 20.93-0.12109 9.5625 4.1172 15.551 7.5703 18.887l4.5469 3.2891c16.766 11.953 30.949 23.902 42.898 35.844 54.684 54.551 63.301 108.85 64.188 162.32 0.12109 7.9688-0.30078 447.89-0.30078 447.89s5.8555 155.4-157.3 169.8c-29.582 2.5938-109.42 4.3945-161.71 4.793z" fill="#fff"/>
</svg>

<?xml version="1.0" encoding="UTF-8" standalone="no"?>
<!DOCTYPE svg PUBLIC "-//W3C//DTD SVG 1.1//EN" "http://www.w3.org/Graphics/SVG/1.1/DTD/svg11.dtd">
<svg width="100%" height="100%" viewBox="0 0 286 512" version="1.1" xmlns="http://www.w3.org/2000/svg" xmlns:xlink="http://www.w3.org/1999/xlink" xml:space="preserve" xmlns:serif="http://www.serif.com/" style="fill-rule:evenodd;clip-rule:evenodd;stroke-linejoin:round;stroke-miterlimit:2;">
    <g transform="matrix(1,0,0,1,-287.365,-22.6379)">
        <g transform="matrix(0.44752,0,0,0.44752,158.764,12.507)">
            <path d="M768.28,174.78C743.034,174.78 722.538,195.264 722.538,220.522C722.538,245.784 743.022,266.264 768.28,266.264C793.542,266.264 814.022,245.791 814.022,220.522C814.022,195.264 793.549,174.78 768.28,174.78ZM606.59,1166.6C534.051,1167.23 486.05,1165.41 444.98,1161.81C281.82,1147.41 287.68,992.011 287.68,992.011C287.68,992.011 287.258,552.081 287.391,544.121C288.457,478.949 301.047,412.551 394.461,345.951C490.328,277.623 502.081,209.491 503.031,185.791L503.035,59.611C503.418,39.127 520.601,22.638 541.676,22.638L671.216,22.638C692.673,22.638 709.868,39.138 710.228,59.611L710.228,92.849C713.935,112.841 731.396,126.15 747.138,126.15C747.138,126.15 765.079,125.537 768.283,125.537C820.748,125.537 863.275,168.064 863.275,220.529C863.275,223.529 863.095,226.493 862.841,229.408C862.841,243.928 861.568,254.931 871.615,264.424C876.162,268.42 879.056,274.263 879.056,280.803C879.056,292.862 869.275,302.631 857.216,302.631C853.532,302.631 850.087,301.705 847.04,300.099C847.04,300.099 839.923,297.146 835.903,296.845C828.762,296.318 822.044,298.611 816.786,302.845C810.751,307.693 806.778,315.111 806.681,323.775C806.56,333.338 810.798,339.326 814.251,342.662L818.798,345.952C835.564,357.905 849.747,369.854 861.696,381.796C916.38,436.347 924.997,490.646 925.884,544.116C926.005,552.084 925.583,992.006 925.583,992.006C925.583,992.006 931.439,1147.41 768.283,1161.81C738.701,1164.4 658.863,1166.2 606.573,1166.6L606.59,1166.6Z" style="fill:white;fill-rule:nonzero;"/>
        </g>
    </g>
</svg>
